www/assets/icons/gite.svg

<svg width="24" height="24" viewBox="0 0 24 24" xmlns="http://www.w3.org/2000/svg" fill='currentColor'><path d="M18 6.5H9V4.5H7V6.5H6L2 10.5V19.5H22V10.5L18 6.5ZM4 12.5H14V17.5H4V12.5ZM20 17.5H16V11.33L18 9.33L20 11.33V17.5Z"/></svg>

<svg xmlns="http://www.w3.org/2000/svg" width="24" height="24" viewBox="0 0 24 24" fill='currentColor'><path d="M18 6.5H9v-2H7v2H6l-4 4v9h20v-9zm-14 6h10v5H4zm16 5h-4v-6.17l2-2 2 2z"/></svg>
